X:520
T:Lark on the Strand
R:jig
Z:Transcribed by Dave Marshall
M:6/8
K:G
|: A3 AGA | BGE G3 | ABA GBd | edg edB |
A3 AGA | BGE G3 | ABA G2B | dBG (3Bcd B :|
|: GBd g3 | gba gdB | GBd ged | edg edB |
GBd g3 | gba gfg |1 a3 age | edg edB :|2 a3 agb | age edB |
